docs/assets/3-dolla-bills-icon.svg

<?xml version="1.0" encoding="UTF-8" standalone="no"?>
<svg
   width="157"
   height="158"
   viewBox="0 0 157 158"
   fill="none"
   version="1.1"
   id="svg6"
   sodipodi:docname="3-dolla-bills-icon.svg"
   inkscape:version="1.3.2 (091e20e, 2023-11-25)"
   xmlns:inkscape="http://www.inkscape.org/namespaces/inkscape"
   xmlns:sodipodi="http://sodipodi.sourceforge.net/DTD/sodipodi-0.dtd"
   xmlns="http://www.w3.org/2000/svg"
   xmlns:svg="http://www.w3.org/2000/svg">
  <defs
     id="defs6" />
  <sodipodi:namedview
     id="namedview6"
     pagecolor="#ffffff"
     bordercolor="#000000"
     borderopacity="0.25"
     inkscape:showpageshadow="2"
     inkscape:pageopacity="0.0"
     inkscape:pagecheckerboard="0"
     inkscape:deskcolor="#d1d1d1"
     inkscape:zoom="3.5723362"
     inkscape:cx="59.344919"
     inkscape:cy="92.796418"
     inkscape:window-width="1440"
     inkscape:window-height="770"
     inkscape:window-x="0"
     inkscape:window-y="25"
     inkscape:window-maximized="0"
     inkscape:current-layer="svg6" />
  <g
     id="g12">
    <path
       d="M 70.4406,48.026 V 19.6858 c -15.4539,-14.16744 -30.9025,14.1622 -46.352,0 V 48.026 c 15.4495,14.1727 30.8981,-14.1666 46.352,0 z"
       fill="#086219"
       id="path12"
       sodipodi:nodetypes="ccccc"
       style="display:inline;stroke:#0eca33;stroke-width:5;stroke-linecap:butt;stroke-linejoin:round;stroke-dasharray:none;stroke-opacity:1" />
    <path
       d="m 47.2624,23.3735 c 5.7518,-2.8651 10.409,0.7688 10.409,6.6729 0,5.6772 -4.6624,11.4233 -10.409,14.2883 -5.7465,2.8651 -10.409,-0.7687 -10.409,-6.6728 0,-5.6675 4.6625,-11.4233 10.409,-14.2884 z"
       fill="#086219"
       id="path5"
       sodipodi:nodetypes="cccscsc"
       style="fill:#0eca33;fill-opacity:1" />
    <path
       d="M44.7452 39.0045C44.5304 38.7043 44.3997 38.1615 44.3523 37.3504C43.8182 37.5825 43.2849 37.8085 42.7508 38.0247C42.7508 39.0724 42.9236 39.8315 43.2639 40.3055C43.8971 41.1802 45.0847 41.2958 46.8432 40.6003C46.8432 41.1846 46.8432 41.7804 46.8432 42.37C47.1309 42.2385 47.4133 42.107 47.7018 41.9746C47.7018 41.385 47.7018 40.7945 47.7018 40.2049C48.7955 39.5835 49.6331 38.9568 50.2085 38.3301C51.2548 37.1977 51.7732 35.8393 51.7732 34.2275C51.7732 33.111 51.3653 32.426 50.554 32.2107C50.0515 32.0739 49.1043 32.1215 47.7018 32.3687C47.7018 30.8938 47.7018 29.4091 47.7018 27.9289C48.5342 27.5812 49.1411 27.6235 49.5226 28.071C49.7322 28.3129 49.8524 28.6554 49.8945 29.0932C50.4234 28.861 50.9514 28.6351 51.4802 28.4135C51.4487 27.402 51.1136 26.7126 50.4698 26.3543C49.8261 26.0065 48.9052 26.0648 47.7018 26.5282C47.7018 26.1283 47.7018 25.7329 47.7018 25.3278C47.4142 25.4593 47.1317 25.5908 46.8432 25.7232C46.8432 26.123 46.8432 26.529 46.8432 26.9289C45.6293 27.492 44.6821 28.2979 44.0068 29.3253C43.3367 30.358 43.0016 31.3316 43.0016 32.2539C43.0016 33.2813 43.3156 33.9707 43.9383 34.2814C44.5663 34.5974 45.5346 34.5868 46.8432 34.2284C46.8432 35.8772 46.8432 37.541 46.8432 39.1898C45.8232 39.5994 45.1215 39.5208 44.7452 39.0045ZM47.7018 34.0748C48.4552 33.9327 48.9946 33.9063 49.3139 33.9954C49.8682 34.1375 50.1515 34.5903 50.1515 35.3591C50.1515 35.8384 50.0471 36.3071 49.8427 36.7599C49.4454 37.6496 48.7333 38.3504 47.7027 38.8668C47.7018 37.2665 47.7018 35.6654 47.7018 34.0748ZM45.232 32.6052C44.8347 32.4472 44.6356 32.0571 44.6356 31.4569C44.6356 30.9564 44.8031 30.4039 45.1382 29.8028C45.4785 29.1973 46.0486 28.6968 46.8441 28.3014C46.8441 29.7287 46.8441 31.1559 46.8441 32.5779C46.1687 32.7632 45.6293 32.7738 45.232 32.6052Z"
       fill="#086219"
       id="path6" />
  </g>
  <g
     id="g14">
    <path
       d="M 104.67021,99.056989 C 120.52221,92.462689 141.148,78.5561 157,93.0925 v -49.47 C 130.038,18.9126 103.06,68.372 76.0977,43.6446 v 17.915593"
       fill="#086219"
       id="path11"
       sodipodi:nodetypes="ccccc"
       style="stroke:#0eca33;stroke-width:5;stroke-linejoin:round;stroke-dasharray:none;stroke-opacity:1;fill:#086219;fill-opacity:1" />
    <path
       d="m 103.102,61.5986 c 3.323,-4.7452 8.101,-8.8954 13.439,-11.5133 10.037,-4.9985 18.175,1.3434 18.175,11.6342 0,9.9122 -8.137,19.9347 -18.175,24.9323 -2.517,1.1589 -4.925,1.7326 -7.112,1.6956 z"
       fill="#086219"
       id="path1"
       sodipodi:nodetypes="ccsccc"
       style="fill:#0eca33;fill-opacity:1" />
    <path
       d="M115.814 54.1993C115.814 54.9054 115.814 55.6107 115.814 56.3115C113.694 57.3018 112.046 58.7026 110.873 60.4988C109.701 62.3003 109.115 63.9906 109.115 65.6023C109.115 67.3985 109.66 68.5936 110.748 69.1417C111.836 69.6951 113.527 69.674 115.814 69.0526C115.814 71.9441 115.814 74.8357 115.814 77.7211C114.029 78.3902 112.815 78.2639 112.161 77.3522C111.784 76.8517 111.549 75.9037 111.47 74.4765C110.789 74.7766 110.115 75.0608 109.434 75.3459C109.434 76.6628 109.434 77.9788 109.434 79.301C109.492 79.4008 109.513 79.5429 109.57 79.6276C110.664 81.1599 112.742 81.3391 115.809 80.1334C115.809 81.1608 115.809 82.1926 115.809 83.22C116.316 82.9932 116.803 82.7619 117.31 82.5298C117.31 81.5024 117.31 80.4653 117.31 79.4431C119.215 78.3584 120.681 77.2683 121.685 76.1729C123.511 74.1923 124.417 71.8276 124.417 68.9996C124.417 67.0507 123.71 65.8556 122.287 65.4761C121.413 65.2439 119.748 65.3287 117.31 65.7603C117.31 63.1847 117.31 60.6038 117.31 58.0132C118.755 57.4024 119.817 57.481 120.482 58.2604C120.838 58.6814 121.057 59.2825 121.125 60.0566C122.052 59.6567 122.978 59.2613 123.893 58.8712C123.836 57.0962 123.26 55.8905 122.13 55.2744C121.01 54.6636 119.398 54.7633 117.305 55.5745C117.305 54.8789 117.305 54.1843 117.305 53.4888C116.808 53.7359 116.322 53.9672 115.814 54.1993ZM115.814 66.1592C114.631 66.4699 113.694 66.4858 112.999 66.191C112.307 65.9068 111.957 65.2378 111.957 64.19C111.957 63.3206 112.256 62.3577 112.836 61.2985C113.427 60.2455 114.427 59.3708 115.809 58.6761C115.814 61.1776 115.814 63.6737 115.814 66.1592ZM120.126 68.6139C121.095 68.8822 121.581 69.6669 121.581 70.9944C121.581 71.832 121.398 72.6485 121.037 73.4438C120.351 74.9866 119.106 76.2038 117.311 77.1147C117.311 74.3335 117.311 71.5372 117.311 68.7516C118.629 68.5089 119.571 68.4665 120.126 68.6139Z"
       fill="#086219"
       id="path2" />
  </g>
  <g
     id="g13">
    <path
       d="m 0,68.7136 v 64.3954 c 35.1054,32.195 70.2152,-32.19 105.321,0 V 68.7136 C 70.2152,32.888558 35.1054,100.909 0,68.7136 Z"
       fill="#086219"
       id="path10"
       style="fill:#086219;stroke:#0eca33;stroke-width:8.3;stroke-linejoin:round;stroke-dasharray:none;stroke-opacity:1;fill-opacity:1"
       sodipodi:nodetypes="ccccc"
       inkscape:label="path10" />
    <path
       d="m 52.6581,124.714 c -13.0674,6.51 -23.6492,-1.753 -23.6492,-15.142 0,-12.8977 10.5818,-25.9539 23.6492,-32.4634 13.0674,-6.5096 23.6545,1.7485 23.6545,15.1418 0,12.8986 -10.5871,25.9496 -23.6545,32.4636 z"
       fill="#086219"
       id="path3"
       style="stroke:none;stroke-width:10.4;stroke-linejoin:round;stroke-dasharray:none;stroke-opacity:1;fill:#0eca33;fill-opacity:1"
       sodipodi:nodetypes="cscsc" />
    <path
       d="M60.1413 97.1438C59.0002 96.849 56.8391 96.9593 53.6571 97.5181C53.6571 94.1578 53.6571 90.8028 53.6571 87.4373C55.5463 86.642 56.9277 86.7471 57.7969 87.7586C58.2626 88.3067 58.545 89.0914 58.6397 90.0967C59.8378 89.5645 61.042 89.0543 62.2401 88.5538C62.1664 86.2475 61.4077 84.6772 59.9483 83.8714C58.488 83.0761 56.3901 83.2076 53.6633 84.2615C53.6633 83.3612 53.6633 82.4547 53.6633 81.5438C53.009 81.8492 52.3599 82.144 51.7056 82.4441C51.7056 83.3603 51.7056 84.2765 51.7056 85.1883C48.9525 86.484 46.802 88.2952 45.2741 90.6448C43.7463 92.9883 42.9824 95.1843 42.9824 97.2859C42.9824 99.6294 43.6893 101.183 45.1127 101.894C46.5362 102.606 48.7289 102.574 51.7065 101.784C51.7065 105.544 51.7065 109.305 51.7065 113.07C49.3884 113.94 47.7974 113.777 46.9441 112.591C46.4573 111.943 46.1591 110.69 46.0547 108.842C44.8409 109.374 43.6261 109.889 42.4123 110.379C42.4123 112.76 42.7999 114.482 43.5796 115.551C45.0084 117.537 47.7194 117.789 51.7074 116.209C51.7074 117.552 51.7074 118.89 51.7074 120.233C52.3617 119.928 53.0107 119.633 53.665 119.338C53.665 118 53.665 116.657 53.665 115.314C56.1506 113.897 58.0451 112.481 59.3642 111.054C61.7402 108.473 62.9224 105.397 62.9224 101.727C62.9102 99.203 61.9892 97.6487 60.1413 97.1438ZM51.7004 98.0282C50.1673 98.4237 48.9473 98.4334 48.0369 98.0759C47.1318 97.7069 46.6818 96.8331 46.6818 95.4685C46.6818 94.3361 47.0642 93.0827 47.8334 91.7084C48.6026 90.3236 49.8954 89.1858 51.7013 88.3005C51.7004 91.5399 51.7004 94.7836 51.7004 98.0282ZM58.5143 107.508C57.625 109.514 56.0024 111.105 53.658 112.285C53.658 108.662 53.658 105.022 53.658 101.398C55.3692 101.082 56.5935 101.029 57.3215 101.23C58.5827 101.561 59.216 102.599 59.216 104.327C59.2151 105.407 58.98 106.476 58.5143 107.508Z"
       fill="#086219"
       id="path4" />
  </g>
</svg>

<svg width="157" height="158" viewBox="0 0 157 158" fill="none" xmlns="http://www.w3.org/2000/svg">
<path d="M76.0977 43.6446C76.0977 47.3791 76.0977 51.1074 76.0977 54.8419C85.099 53.1675 94.0951 54.3626 103.102 61.5986C106.425 56.8534 111.203 52.7032 116.541 50.0853C126.578 45.0868 134.716 51.4287 134.716 61.7195C134.716 71.6317 126.579 81.6542 116.541 86.6518C114.024 87.8107 111.616 88.3844 109.429 88.3474C109.429 90.9803 109.429 93.6194 109.429 96.2577C125.281 89.6634 141.148 78.5561 157 93.0925C157 76.6028 157 60.1122 157 43.6225C130.038 18.9126 103.06 68.372 76.0977 43.6446Z" fill="#086219"/>
<path d="M115.814 54.1993C115.814 54.9054 115.814 55.6107 115.814 56.3115C113.694 57.3018 112.046 58.7026 110.873 60.4988C109.701 62.3003 109.115 63.9906 109.115 65.6023C109.115 67.3985 109.66 68.5936 110.748 69.1417C111.836 69.6951 113.527 69.674 115.814 69.0526C115.814 71.9441 115.814 74.8357 115.814 77.7211C114.029 78.3902 112.815 78.2639 112.161 77.3522C111.784 76.8517 111.549 75.9037 111.47 74.4765C110.789 74.7766 110.115 75.0608 109.434 75.3459C109.434 76.6628 109.434 77.9788 109.434 79.301C109.492 79.4008 109.513 79.5429 109.57 79.6276C110.664 81.1599 112.742 81.3391 115.809 80.1334C115.809 81.1608 115.809 82.1926 115.809 83.22C116.316 82.9932 116.803 82.7619 117.31 82.5298C117.31 81.5024 117.31 80.4653 117.31 79.4431C119.215 78.3584 120.681 77.2683 121.685 76.1729C123.511 74.1923 124.417 71.8276 124.417 68.9996C124.417 67.0507 123.71 65.8556 122.287 65.4761C121.413 65.2439 119.748 65.3287 117.31 65.7603C117.31 63.1847 117.31 60.6038 117.31 58.0132C118.755 57.4024 119.817 57.481 120.482 58.2604C120.838 58.6814 121.057 59.2825 121.125 60.0566C122.052 59.6567 122.978 59.2613 123.893 58.8712C123.836 57.0962 123.26 55.8905 122.13 55.2744C121.01 54.6636 119.398 54.7633 117.305 55.5745C117.305 54.8789 117.305 54.1843 117.305 53.4888C116.808 53.7359 116.322 53.9672 115.814 54.1993ZM115.814 66.1592C114.631 66.4699 113.694 66.4858 112.999 66.191C112.307 65.9068 111.957 65.2378 111.957 64.19C111.957 63.3206 112.256 62.3577 112.836 61.2985C113.427 60.2455 114.427 59.3708 115.809 58.6761C115.814 61.1776 115.814 63.6737 115.814 66.1592ZM120.126 68.6139C121.095 68.8822 121.581 69.6669 121.581 70.9944C121.581 71.832 121.398 72.6485 121.037 73.4438C120.351 74.9866 119.106 76.2038 117.311 77.1147C117.311 74.3335 117.311 71.5372 117.311 68.7516C118.629 68.5089 119.571 68.4665 120.126 68.6139Z" fill="#086219"/>
<path d="M0 68.7136C0 90.1806 0 111.642 0 133.109C35.1054 165.304 70.2152 100.919 105.321 133.109C105.321 111.648 105.321 90.1859 105.321 68.7136C70.2152 36.5189 35.1054 100.909 0 68.7136ZM52.6581 124.714C39.5907 131.224 29.0089 122.961 29.0089 109.572C29.0089 96.6743 39.5907 83.6181 52.6581 77.1086C65.7255 70.599 76.3126 78.8571 76.3126 92.2504C76.3126 105.149 65.7255 118.2 52.6581 124.714Z" fill="#086219"/>
<path d="M60.1413 97.1438C59.0002 96.849 56.8391 96.9593 53.6571 97.5181C53.6571 94.1578 53.6571 90.8028 53.6571 87.4373C55.5463 86.642 56.9277 86.7471 57.7969 87.7586C58.2626 88.3067 58.545 89.0914 58.6397 90.0967C59.8378 89.5645 61.042 89.0543 62.2401 88.5538C62.1664 86.2475 61.4077 84.6772 59.9483 83.8714C58.488 83.0761 56.3901 83.2076 53.6633 84.2615C53.6633 83.3612 53.6633 82.4547 53.6633 81.5438C53.009 81.8492 52.3599 82.144 51.7056 82.4441C51.7056 83.3603 51.7056 84.2765 51.7056 85.1883C48.9525 86.484 46.802 88.2952 45.2741 90.6448C43.7463 92.9883 42.9824 95.1843 42.9824 97.2859C42.9824 99.6294 43.6893 101.183 45.1127 101.894C46.5362 102.606 48.7289 102.574 51.7065 101.784C51.7065 105.544 51.7065 109.305 51.7065 113.07C49.3884 113.94 47.7974 113.777 46.9441 112.591C46.4573 111.943 46.1591 110.69 46.0547 108.842C44.8409 109.374 43.6261 109.889 42.4123 110.379C42.4123 112.76 42.7999 114.482 43.5796 115.551C45.0084 117.537 47.7194 117.789 51.7074 116.209C51.7074 117.552 51.7074 118.89 51.7074 120.233C52.3617 119.928 53.0107 119.633 53.665 119.338C53.665 118 53.665 116.657 53.665 115.314C56.1506 113.897 58.0451 112.481 59.3642 111.054C61.7402 108.473 62.9224 105.397 62.9224 101.727C62.9102 99.203 61.9892 97.6487 60.1413 97.1438ZM51.7004 98.0282C50.1673 98.4237 48.9473 98.4334 48.0369 98.0759C47.1318 97.7069 46.6818 96.8331 46.6818 95.4685C46.6818 94.3361 47.0642 93.0827 47.8334 91.7084C48.6026 90.3236 49.8954 89.1858 51.7013 88.3005C51.7004 91.5399 51.7004 94.7836 51.7004 98.0282ZM58.5143 107.508C57.625 109.514 56.0024 111.105 53.658 112.285C53.658 108.662 53.658 105.022 53.658 101.398C55.3692 101.082 56.5935 101.029 57.3215 101.23C58.5827 101.561 59.216 102.599 59.216 104.327C59.2151 105.407 58.98 106.476 58.5143 107.508Z" fill="#086219"/>
<path d="M70.4406 48.026C70.4406 38.5825 70.4406 29.1346 70.4406 19.6858C54.9867 5.51836 39.5381 33.848 24.0886 19.6858C24.0886 29.1293 24.0886 38.5772 24.0886 48.026C39.5381 62.1987 54.9867 33.8594 70.4406 48.026ZM47.2624 23.3735C53.0142 20.5084 57.6714 24.1423 57.6714 30.0464C57.6714 35.7236 53.009 41.4697 47.2624 44.3347C41.5159 47.1998 36.8534 43.566 36.8534 37.6619C36.8534 31.9944 41.5159 26.2386 47.2624 23.3735Z" fill="#086219"/>
<path d="M44.7452 39.0045C44.5304 38.7043 44.3997 38.1615 44.3523 37.3504C43.8182 37.5825 43.2849 37.8085 42.7508 38.0247C42.7508 39.0724 42.9236 39.8315 43.2639 40.3055C43.8971 41.1802 45.0847 41.2958 46.8432 40.6003C46.8432 41.1846 46.8432 41.7804 46.8432 42.37C47.1309 42.2385 47.4133 42.107 47.7018 41.9746C47.7018 41.385 47.7018 40.7945 47.7018 40.2049C48.7955 39.5835 49.6331 38.9568 50.2085 38.3301C51.2548 37.1977 51.7732 35.8393 51.7732 34.2275C51.7732 33.111 51.3653 32.426 50.554 32.2107C50.0515 32.0739 49.1043 32.1215 47.7018 32.3687C47.7018 30.8938 47.7018 29.4091 47.7018 27.9289C48.5342 27.5812 49.1411 27.6235 49.5226 28.071C49.7322 28.3129 49.8524 28.6554 49.8945 29.0932C50.4234 28.861 50.9514 28.6351 51.4802 28.4135C51.4487 27.402 51.1136 26.7126 50.4698 26.3543C49.8261 26.0065 48.9052 26.0648 47.7018 26.5282C47.7018 26.1283 47.7018 25.7329 47.7018 25.3278C47.4142 25.4593 47.1317 25.5908 46.8432 25.7232C46.8432 26.123 46.8432 26.529 46.8432 26.9289C45.6293 27.492 44.6821 28.2979 44.0068 29.3253C43.3367 30.358 43.0016 31.3316 43.0016 32.2539C43.0016 33.2813 43.3156 33.9707 43.9383 34.2814C44.5663 34.5974 45.5346 34.5868 46.8432 34.2284C46.8432 35.8772 46.8432 37.541 46.8432 39.1898C45.8232 39.5994 45.1215 39.5208 44.7452 39.0045ZM47.7018 34.0748C48.4552 33.9327 48.9946 33.9063 49.3139 33.9954C49.8682 34.1375 50.1515 34.5903 50.1515 35.3591C50.1515 35.8384 50.0471 36.3071 49.8427 36.7599C49.4454 37.6496 48.7333 38.3504 47.7027 38.8668C47.7018 37.2665 47.7018 35.6654 47.7018 34.0748ZM45.232 32.6052C44.8347 32.4472 44.6356 32.0571 44.6356 31.4569C44.6356 30.9564 44.8031 30.4039 45.1382 29.8028C45.4785 29.1973 46.0486 28.6968 46.8441 28.3014C46.8441 29.7287 46.8441 31.1559 46.8441 32.5779C46.1687 32.7632 45.6293 32.7738 45.232 32.6052Z" fill="#086219"/>
</svg>
